share/icons/Flat-Remix-Blue-Dark/mimetypes/scalable/wps-office-doc.svg

<svg xmlns="http://www.w3.org/2000/svg" xmlns:xlink="http://www.w3.org/1999/xlink" width="36pt" height="36pt" version="1.1" viewBox="0 0 36 36"> <defs> <clipPath id="clip1"> <path d="M 20 2 L 31 2 L 31 13 L 20 13 Z M 20 2"/> </clipPath> <clipPath id="clip2"> <path d="M 20.515625 2.625 L 30.328125 12.4375 L 22.023438 12.4375 C 21.292969 12.4375 20.515625 11.660156 20.515625 10.929688 Z M 20.515625 2.625"/> </clipPath> <image id="image6" width="36" height="36" xlink:href="data:image/png;base64,iVBORw0KGgoAAAANSUhEUgAAACQAAAAkCAYAAADhAJiYAAAABmJLR0QA/wD/AP+gvaeTAAAAmklEQVRYhe3T0QqCQBBG4aOtYEoUvf9Lildltl00C4tkbBeTIP+BAUEYP1YW1Pcqh53B9kbgaVPcwQF0tAmGSrMZ6AKcDQXw+AUVHEAtcAUaewYYgYmC3+cBCkAPnDJQMcoDVNnebgEqQnmAclTz4d0I3P4JStc9AjXvk4qLWQV53LLeEOl05gw4A3dgcPiuUkoppZRSSqk99gLWvSJpuDnlsAAAAABJRU5ErkJggg=="/> </defs> <g> <path style="fill:rgb(14.901%,35.294%,69.411%)" d="M 7.347656 3.152344 C 6.675781 3.152344 6.042969 3.785156 6.042969 4.457031 L 6.042969 31.847656 C 6.042969 32.480469 6.714844 33.152344 7.347656 33.152344 L 28.21875 33.152344 C 28.851562 33.152344 29.523438 32.480469 29.523438 31.847656 L 29.523438 11.632812 L 21.042969 3.152344 Z M 7.347656 3.152344"/> <g clip-path="url(#clip1)"> <g clip-path="url(#clip2)"> <use xlink:href="#image6"/> </g> </g> <path style="fill:rgb(23.137%,54.509%,72.156%)" d="M 21.042969 3.152344 L 29.523438 11.632812 L 22.347656 11.632812 C 21.714844 11.632812 21.042969 10.960938 21.042969 10.328125 Z M 21.042969 3.152344"/> <path style="fill:rgb(100.000%,100.000%,100.000%)" d="M 12.835938 13.433594 L 17.296875 13.433594 C 17.503906 13.433594 17.675781 13.609375 17.675781 13.828125 L 17.675781 17.609375 C 17.675781 17.824219 17.503906 18 17.296875 18 L 12.835938 18 C 12.625 18 12.457031 17.824219 12.457031 17.609375 L 12.457031 13.828125 C 12.457031 13.609375 12.625 13.433594 12.835938 13.433594 Z M 12.835938 13.433594"/> <path style="fill:none;stroke-linecap:round;stroke-linejoin:round;stroke:rgb(100.000%,100.000%,100.000%)" d="M 26.500521 17.501302 L 31.501823 17.501302" transform="matrix(0.652174,0,0,0.652174,2.021739,2.347826)"/> <path style="fill:none;stroke-linecap:round;stroke-linejoin:round;stroke:rgb(100.000%,100.000%,100.000%)" d="M 26.500521 20.502083 L 31.501823 20.502083" transform="matrix(0.652174,0,0,0.652174,2.021739,2.347826)"/> <path style="fill:none;stroke-linecap:round;stroke-linejoin:round;stroke:rgb(100.000%,100.000%,100.000%)" d="M 26.500521 23.502864 L 31.501823 23.502864" transform="matrix(0.652174,0,0,0.652174,2.021739,2.347826)"/> <path style="fill:none;stroke-linecap:round;stroke-linejoin:round;stroke:rgb(100.000%,100.000%,100.000%)" d="M 16.000781 26.497656 L 31.998958 26.497656" transform="matrix(0.652174,0,0,0.652174,2.021739,2.347826)"/> <path style="fill:none;stroke-linecap:round;stroke-linejoin:round;stroke:rgb(100.000%,100.000%,100.000%)" d="M 16.000781 29.498437 L 31.998958 29.498437" transform="matrix(0.652174,0,0,0.652174,2.021739,2.347826)"/> <path style="fill:none;stroke-linecap:round;stroke-linejoin:round;stroke:rgb(100.000%,100.000%,100.000%)" d="M 16.000781 32.499219 L 31.998958 32.499219" transform="matrix(0.652174,0,0,0.652174,2.021739,2.347826)"/> <path style="fill:none;stroke-linecap:round;stroke-linejoin:round;stroke:rgb(100.000%,100.000%,100.000%)" d="M 16.000781 35.5 L 31.998958 35.5" transform="matrix(0.652174,0,0,0.652174,2.021739,2.347826)"/> </g> </svg>

<svg width="36pt" height="36pt" version="1.1" viewBox="0 0 36 36" xmlns="http://www.w3.org/2000/svg"><defs><filter id="a" x="-.192" y="-.192" width="1.384" height="1.384" color-interpolation-filters="sRGB"><feGaussianBlur stdDeviation="0.67843748"/></filter></defs><path d="m7.3477 3.9022c-0.67188 0-1.3047 0.63281-1.3047 1.3047v27.391c0 0.63281 0.67188 1.3047 1.3047 1.3047h20.871c0.63281 0 1.3047-0.67188 1.3047-1.3047v-20.215l-8.4805-8.4805z" opacity=".3"/><path d="m7.3477 3.1523c-0.67188 0-1.3047 0.63281-1.3047 1.3047v27.391c0 0.63281 0.67188 1.3047 1.3047 1.3047h20.871c0.63281 0 1.3047-0.67188 1.3047-1.3047v-20.215l-8.4805-8.4805z" fill="#2559b0"/><path d="m20.668 3.5272 8.4805 8.4805h-7.1758c-0.63281 0-1.3047-0.67187-1.3047-1.3047z" filter="url(#a)" opacity=".2"/><path d="m21.043 3.1523 8.4805 8.4805h-7.1758c-0.63281 0-1.3047-0.67187-1.3047-1.3047z" fill="#3a8ab7"/><path d="m12.836 13.434h4.4609c0.20703 0 0.37891 0.17578 0.37891 0.39453v3.7812c0 0.21484-0.17188 0.39062-0.37891 0.39062h-4.4609c-0.21094 0-0.37891-0.17578-0.37891-0.39062v-3.7812c0-0.21875 0.16797-0.39453 0.37891-0.39453z" fill="#fff"/><path transform="matrix(.65217 0 0 .65217 2.0217 2.3478)" d="m26.501 17.501h5.0013" fill="none" stroke="#fff" stroke-linecap="round" stroke-linejoin="round"/><path transform="matrix(.65217 0 0 .65217 2.0217 2.3478)" d="m26.501 20.502h5.0013" fill="none" stroke="#fff" stroke-linecap="round" stroke-linejoin="round"/><path transform="matrix(.65217 0 0 .65217 2.0217 2.3478)" d="m26.501 23.503h5.0013" fill="none" stroke="#fff" stroke-linecap="round" stroke-linejoin="round"/><path transform="matrix(.65217 0 0 .65217 2.0217 2.3478)" d="m16.001 26.498h15.998" fill="none" stroke="#fff" stroke-linecap="round" stroke-linejoin="round"/><path transform="matrix(.65217 0 0 .65217 2.0217 2.3478)" d="m16.001 29.498h15.998" fill="none" stroke="#fff" stroke-linecap="round" stroke-linejoin="round"/><path transform="matrix(.65217 0 0 .65217 2.0217 2.3478)" d="m16.001 32.499h15.998" fill="none" stroke="#fff" stroke-linecap="round" stroke-linejoin="round"/><path transform="matrix(.65217 0 0 .65217 2.0217 2.3478)" d="m16.001 35.5h15.998" fill="none" stroke="#fff" stroke-linecap="round" stroke-linejoin="round"/></svg>
